src/resources/svg/logo-with-name.svg

<svg width="217" height="37" viewBox="0 0 217 37" xmlns="http://www.w3.org/2000/svg">
    <path d="m62.232 10.553c3.2469 0 5.3213 1.2627 5.3213 3.8783 0 1.8038-0.9921 2.8861-2.345 3.337 1.5333 0.451 2.8861 1.5333 2.8861 3.7881 0 3.4272-3.337 4.2389-5.9526 4.2389h-6.5839v-15.242h6.6741zm0 8.6584h-3.4273v3.9684h3.2469c1.4431 0 2.796-0.2706 2.796-1.9842 0-1.6234-1.3529-1.9842-2.6156-1.9842zm-0.3608-6.0428h-3.1566v3.5174h3.337c1.2627 0 2.1646-0.5411 2.1646-1.7136 0-1.2627-0.9019-1.8038-2.345-1.8038z" fill="#13202B"/>
    <path d="m70.62 25.795 6.2232-15.242h3.5174l6.2232 15.242h-3.3371l-1.1725-2.8861h-6.9447l-1.1725 2.8861h-3.337zm5.5016-5.5918h4.9605l-2.1645-5.5017c-0.0902-0.2705-0.1804-0.6313-0.3608-1.1725-0.0902 0.6314-0.1804 0.902-0.3608 1.1725l-2.0744 5.5017z" fill="#13202B"/>
    <path d="m90.462 25.795v-15.242h6.3134c2.9763 0 6.0427 1.0823 6.0427 4.9605 0 2.6156-1.443 3.9685-3.337 4.5096l4.6 5.7722h-3.788l-4.149-5.3212h-2.4352v5.3212h-3.2469zm3.2469-8.1172h3.1567c1.3529 0 2.6155-0.6313 2.6155-2.1646 0-1.5332-1.1725-2.1645-2.6155-2.1645h-3.1567v4.3291z" fill="#13202B"/>
    <path d="m108.05 25.795v-15.242h3.067l7.125 9.9211c0-0.6314-0.09-1.3529-0.09-2.0744v-7.8467h3.247v15.242h-3.067l-7.125-9.921c0 0.6314 0.09 1.3529 0.09 2.0744v7.8466h-3.247z" fill="#13202B"/>
    <path d="m133.57 10.553c3.247 0 5.322 1.2627 5.322 3.8783 0 1.8038-0.993 2.8861-2.345 3.337 1.533 0.451 2.886 1.5333 2.886 3.7881 0 3.4272-3.337 4.2389-5.953 4.2389h-6.584v-15.242h6.674zm0 8.6584h-3.427v3.9684h3.247c1.443 0 2.796-0.2706 2.796-1.9842 0-1.6234-1.263-1.9842-2.616-1.9842zm-0.27-6.0428h-3.157v3.5174h3.337c1.263 0 2.165-0.5411 2.165-1.7136-0.09-1.2627-0.902-1.8038-2.345-1.8038z" fill="#13202B"/>
    <path d="m144.04 25.795v-15.242h6.314c2.976 0 6.043 1.0823 6.043 4.9605 0 2.6156-1.443 3.9685-3.337 4.5096l4.599 5.7722h-3.788l-4.149-5.3212h-2.435v5.3212h-3.247zm3.247-8.1172h3.157c1.353 0 2.616-0.6313 2.616-2.1646 0-1.5332-1.173-2.1645-2.616-2.1645h-3.157v4.3291z" fill="#13202B"/>
    <path d="m164.87 10.553v15.242h-3.246v-15.242h3.246z" fill="#13202B"/>
    <path d="m176.05 10.553c5.412 0 8.027 3.2469 8.027 7.6663s-2.615 7.6662-8.027 7.6662h-5.682v-15.332h5.682zm0 2.796h-2.435v9.47h2.435c3.067 0 4.69-1.6234 4.69-4.7801s-1.713-4.6899-4.69-4.6899z" fill="#13202B"/>
    <path d="m196.17 10.192c1.623 0 3.247 0.3608 4.69 0.9921v3.1567c-1.173-0.7215-2.706-1.1725-4.239-1.1725-2.706 0-5.412 1.4431-5.412 5.0507 0 4.0586 2.977 5.0507 5.231 5.0507 0.632 0 1.263-0.0902 1.714-0.2706v-5.4114h3.157v7.576c-1.533 0.6314-3.247 0.9921-4.961 0.9921-4.239 0-8.387-2.3449-8.387-7.9368-0.091-5.5918 3.968-8.027 8.207-8.027z" fill="#13202B"/>
    <path d="m216.91 10.553v2.8862h-7.486v3.2468h6.854v2.8862h-6.854v3.4272h7.576v2.8861h-10.913v-15.332h10.823z" fill="#13202B"/>
    <path d="m18.85 16.234h-0.1803c-2.4352 0-4.3292 1.9842-4.3292 4.5095v4.8704l4.4193-3.3371 4.4194 3.3371v-4.8704c0-2.4351-1.9842-4.4193-4.3292-4.5095z" fill="#FF4339"/>
    <path d="M0 0V36.2568L11.2739 27.8691V18.3088L9.1995 16.6854L18.7598 9.47007L28.32 16.6854L26.2456 18.3088V27.8691L37.5195 36.2568V0H0Z" fill="#FF4339"/>
</svg>

<svg width="217" height="37" viewBox="0 0 217 37" fill="none" xmlns="http://www.w3.org/2000/svg">
    <path fill="#13202B"
          d="M62.232 10.5527C65.4789 10.5527 67.5533 11.8154 67.5533 14.431C67.5533 16.2348 66.5612 17.3171 65.2083 17.768C66.7416 18.219 68.0944 19.3013 68.0944 21.5561C68.0944 24.9833 64.7574 25.795 62.1418 25.795H55.5579V10.5527H62.232ZM62.232 19.2111H58.8047V23.1795H62.0516C63.4947 23.1795 64.8476 22.9089 64.8476 21.1953C64.8476 19.5719 63.4947 19.2111 62.232 19.2111ZM61.8712 13.1683H58.7146V16.6857H62.0516C63.3143 16.6857 64.2162 16.1446 64.2162 14.9721C64.2162 13.7094 63.3143 13.1683 61.8712 13.1683Z"
    />
    <path fill="#13202B"
          d="M70.6199 25.795L76.8431 10.5527H80.3605L86.5837 25.795H83.2466L82.0741 22.9089H75.1294L73.9569 25.795H70.6199ZM76.1215 20.2032H81.082L78.9175 14.7015C78.8273 14.431 78.7371 14.0702 78.5567 13.529C78.4665 14.1604 78.3763 14.431 78.1959 14.7015L76.1215 20.2032Z"
    />
    <path fill="#13202B"
          d="M90.4619 25.795V10.5527H96.7753C99.7516 10.5527 102.818 11.635 102.818 15.5132C102.818 18.1288 101.375 19.4817 99.481 20.0228L104.081 25.795H100.293L96.144 20.4738H93.7088V25.795H90.4619ZM93.7088 17.6778H96.8655C98.2184 17.6778 99.481 17.0465 99.481 15.5132C99.481 13.98 98.3085 13.3487 96.8655 13.3487H93.7088V17.6778Z"
    />
    <path fill="#13202B"
          d="M108.049 25.795V10.5527H111.116L118.241 20.4738C118.241 19.8424 118.151 19.1209 118.151 18.3994V10.5527H121.398V25.795H118.331L111.206 15.874C111.206 16.5054 111.296 17.2269 111.296 17.9484V25.795H108.049Z"
    />
    <path fill="#13202B"
          d="M133.573 10.5527C136.82 10.5527 138.895 11.8154 138.895 14.431C138.895 16.2348 137.902 17.3171 136.55 17.768C138.083 18.219 139.436 19.3013 139.436 21.5561C139.436 24.9833 136.099 25.795 133.483 25.795H126.899V10.5527H133.573ZM133.573 19.2111H130.146V23.1795H133.393C134.836 23.1795 136.189 22.9089 136.189 21.1953C136.189 19.5719 134.926 19.2111 133.573 19.2111ZM133.303 13.1683H130.146V16.6857H133.483C134.746 16.6857 135.648 16.1446 135.648 14.9721C135.558 13.7094 134.746 13.1683 133.303 13.1683Z"
    />
    <path fill="#13202B"
          d="M144.035 25.795V10.5527H150.349C153.325 10.5527 156.392 11.635 156.392 15.5132C156.392 18.1288 154.949 19.4817 153.055 20.0228L157.654 25.795H153.866L149.717 20.4738H147.282V25.795H144.035ZM147.282 17.6778H150.439C151.792 17.6778 153.055 17.0465 153.055 15.5132C153.055 13.98 151.882 13.3487 150.439 13.3487H147.282V17.6778Z"
    />
    <path fill="#13202B" d="M164.869 10.5527V25.795H161.623V10.5527H164.869Z"/>
    <path fill="#13202B"
          d="M176.053 10.5527C181.465 10.5527 184.08 13.7996 184.08 18.219C184.08 22.6384 181.465 25.8852 176.053 25.8852H170.371V10.5527H176.053ZM176.053 13.3487H173.618V22.8187H176.053C179.12 22.8187 180.743 21.1953 180.743 18.0386C180.743 14.8819 179.03 13.3487 176.053 13.3487Z"
    />
    <path fill="#13202B"
          d="M196.166 10.1919C197.789 10.1919 199.413 10.5527 200.856 11.184V14.3407C199.683 13.6192 198.15 13.1682 196.617 13.1682C193.911 13.1682 191.205 14.6113 191.205 18.2189C191.205 22.2775 194.182 23.2696 196.436 23.2696C197.068 23.2696 197.699 23.1794 198.15 22.999V17.5876H201.307V25.1636C199.774 25.795 198.06 26.1557 196.346 26.1557C192.107 26.1557 187.959 23.8108 187.959 18.2189C187.868 12.6271 191.927 10.1919 196.166 10.1919Z"
    />
    <path fill="#13202B"
          d="M216.91 10.5527V13.4389H209.424V16.6857H216.278V19.5719H209.424V22.9991H217V25.8852H206.087V10.5527H216.91Z"
    />
    <path fill="#FF4339"
          d="M18.8501 16.2339H18.6698C16.2346 16.2339 14.3406 18.2181 14.3406 20.7434V25.6138L18.7599 22.2767L23.1793 25.6138V20.7434C23.1793 18.3083 21.1951 16.3241 18.8501 16.2339Z"
    />
    <path fill="#FF4339"
          d="M0 0V36.2568L11.2739 27.8691V18.3088L9.1995 16.6854L18.7598 9.47007L28.32 16.6854L26.2456 18.3088V27.8691L37.5195 36.2568V0H0Z"
    />
</svg>
